X:1
T:[ID 3-9]
T:[ID 3-9]
T:Bezeichnung standardisiert: Siciliano Siciliano 5
T:Urheber unbekannt Datum in der hier transkribierten schriftlichen Quelle: 1767
C:Urheber unbekannt
C:Datum in der hier transkribierten schriftlichen Quelle: 1767
%%score 1 2
L:1/8
M:6/8
K:D
V:1 treble nm="Primo"
V:2 treble nm="Secondo"
V:1
 a | f>ed d'>c'b | a2 A A2 g | f>ed a2 g | f2 e e2 a | fdd bdd | add d2 d' | c'>ba e>a^g | %8
 a2 A A2 :: A | A>ag A>gf | A>fe c>BA | A>ag A>gf | A>fe c>BA | f2 b d2 c | B>c^A B2 a | %16
 f>ed d'>c'b | a2 A A2 g | f>ed a2 g | f2 e e2 a | gbb faa | egg A2 a | f>ed A>dc | d2 D D2 x | %24
 x5 :| %25
V:2
 !fermata!f | d>AF f2 g | f2 A A2 e | d2 A f2 e | d2 c c2 f | dfa dgb | dfa d2 b | a2 c BeB | %8
 c2 c c2 :: A | A>fe A>ed | A>dc A2 E | A>fe A>ed | A>dc A2 E | d>cB f2 F | B>^DF B2 f | %16
 d>AF f2 g | f2 c c2 e | d2 A f2 e | d2 c c2 f | d'gg x3 | aff x3 | gee c2 f | d>AF E>AG | %24
 F2 F F2 :| %25

